icon-themes/breeze_svg/cmd/sc_resetattributes.svg

<svg viewBox="0 0 16 16" xmlns="http://www.w3.org/2000/svg"><path d="m5 2v1h1 3l-4.28125 10h-2.71875v1h2.28125 2 1.71875v-1h-1l4.28125-10h2.71875v-1h-2.28125-2-3.71875z" fill="#4d4d4d"/><path d="m10 9-.9902344.9902344 2.0097654 2.0097656-2.0097654 2.009766.9902344.990234 2.009766-2.009766 2.009765 2.009766.990235-.990234-2.009766-2.009766 2.009766-2.0097656-.990235-.9902344-2.009765 2.009766z" fill="#da4453"/></svg>

<svg xmlns="http://www.w3.org/2000/svg" viewBox="0 0 16 16">
 <path 
     style="fill:#4d4d4d" 
     d="M 5 2 L 5 3 L 6 3 L 9 3 L 4.71875 13 L 2 13 L 2 14 L 4.28125 14 L 6.28125 14 L 8 14 L 8 13 L 7 13 L 11.28125 3 L 14 3 L 14 2 L 11.71875 2 L 9.71875 2 L 6 2 L 5 2 z "
     />
 <path 
     style="fill:#da4453" 
     d="M 10 9 L 9.0097656 9.9902344 L 11.019531 12 L 9.0097656 14.009766 L 10 15 L 12.009766 12.990234 L 14.019531 15 L 15.009766 14.009766 L 13 12 L 15.009766 9.9902344 L 14.019531 9 L 12.009766 11.009766 L 10 9 z "
     />
 </svg>
